public/icons/stratagems/Patriotic Administration Center/Flamethrower.svg

<svg xmlns="http://www.w3.org/2000/svg" viewBox="0 0 126 126" fill="#fff">
<path d="M62 65v-9l-3-4 6-10 1 2 1 3 5 5-4 5v8l15-14s0-6.1-5-18a52.4 52.4 0 0 0-5 7V28L60 15l-2 16-9 9v14Z"/>
<path fill="#49adc9" d="M81 92v1h3v4l-4 4h-4v3l-12 9h-7l-5-7v-6l-7-10H29l-4 5H9l-5-4v-8h18l2-2h18v-2h8v2h4v-2h20v2h9v2h30l2 1h3v2h-1l-2 1v3h3v-3l2 1h1v4H81Zm-58-5h-7l-1 2h-1l-1-2h-3v6h11l2-2v-4Zm43 5-4-4H50v3l7 8h2l7-4v-3Zm46-4H81v2h31v-2Z"/>
</svg>

<svg id="HD2-FT" xmlns="http://www.w3.org/2000/svg" xmlns:xlink="http://www.w3.org/1999/xlink" viewBox="0 0 126 126">
  <defs>
    <style>
      .cls-1 {
        fill: #fff;
      }

      .cls-1, .cls-2 {
        fill-rule: evenodd;
      }

      .cls-2 {
        fill: #49adc9;
      }
    </style>
  </defs>
  <g id="HD2-FT-2" data-name="HD2-FT">
    <path class="cls-1" d="M62,65V56l-3-4,6-10,1,2,1,3,5,5-4,5v8L83,51s-0.034-6.1-5-18a52.362,52.362,0,0,0-5,7V28L60,15,58,31l-9,9V54Z"/>
    <path class="cls-2" d="M81,92v1h3v4l-4,4H76v3l-12,9H57l-5-7v-6L45,90H29l-4,5H9L4,91V83H22l2-2H42V79h8v2h4V79H74v2h9v2h30l2,1h3v2h-1l-2,1v3h3V87l2,1h1v4H81ZM23,87H16l-1,2H14l-1-2H10v6H21l2-2V87Zm43,5-4-4H50v3l7,8h2l7-4V92Zm46-4H81v2h31V88Z"/>
  </g>
</svg>
